src/assets/icons/android.svg

<svg width="14" height="14" viewBox="0 0 14 14" fill="none" xmlns="http://www.w3.org/2000/svg">
<g id="android">
<g clip-path="url(#clip0_156_4476)">
<g id="Vector">
<path fill-rule="evenodd" clip-rule="evenodd" d="M9.17827 1.43587C9.95615 1.91624 10.5328 2.646 10.7751 3.5C10.8425 3.7275 10.8793 3.96199 10.8845 4.19999H3.11452C3.12064 3.96286 3.15739 3.7275 3.22389 3.5C3.46539 2.64688 4.0429 1.91712 4.8199 1.43675C4.86365 1.40875 4.9074 1.3825 4.95202 1.35712C4.99665 1.33175 5.04215 1.30726 5.08765 1.28363L4.93802 1.0185L4.47252 0.183743C4.44189 0.125118 4.46289 0.0533841 4.51977 0.020134C4.57839 -0.014866 4.65452 0.00524837 4.68952 0.0638733L5.31339 1.17688C5.36019 1.15694 5.40784 1.13788 5.4555 1.11882L5.45689 1.11826C5.50502 1.09901 5.55403 1.0815 5.60303 1.064C6.50778 0.748128 7.49477 0.748128 8.40039 1.064C8.45001 1.08141 8.49789 1.09969 8.54577 1.11797C8.59477 1.13635 8.64278 1.15588 8.69003 1.17688L9.3139 0.0629921C9.33577 0.024492 9.37689 0 9.42239 0C9.44252 0 9.46264 0.00612956 9.48102 0.0157547C9.54052 0.0490048 9.5624 0.123388 9.52915 0.182888L9.06102 1.0185L8.91139 1.28363C8.92317 1.2901 8.935 1.29656 8.94687 1.30304C8.97997 1.32112 9.0133 1.33932 9.04615 1.358C9.09077 1.38338 9.13452 1.40874 9.17827 1.43587ZM4.87939 2.68361C4.87939 2.87699 5.03777 3.03363 5.2329 3.03363C5.42802 3.03363 5.5864 2.87699 5.5864 2.68361C5.5864 2.49024 5.42802 2.33362 5.2329 2.33362C5.03777 2.33362 4.87939 2.49024 4.87939 2.68361ZM8.41352 2.68361C8.41352 2.87699 8.5719 3.03363 8.76702 3.03363C8.96215 3.03363 9.12052 2.87699 9.12052 2.68361C9.12052 2.49024 8.96215 2.33362 8.76702 2.33362C8.5719 2.33362 8.41352 2.49024 8.41352 2.68361Z" fill="black"/>
<path d="M0.875427 5.48274C0.875427 5.03212 1.24468 4.66638 1.69968 4.66638C2.15468 4.66638 2.52393 5.03212 2.52393 5.48274V9.21637C2.52393 9.66699 2.15468 10.0328 1.69968 10.0328C1.24468 10.0328 0.875427 9.66699 0.875427 9.21637V5.48274Z" fill="black"/>
<path d="M11.476 5.48274C11.476 5.03212 11.8453 4.66638 12.3003 4.66638C12.7553 4.66638 13.1245 5.03212 13.1245 5.48274V9.21637C13.1245 9.66699 12.7553 10.0328 12.3003 10.0328C11.8453 10.0328 11.476 9.66699 11.476 9.21637V5.48274Z" fill="black"/>
<path d="M3.11281 4.66638V10.2664C3.11281 10.7818 3.53457 11.2 4.05519 11.2H4.64406V13.1836C4.64406 13.6342 5.01331 14 5.46831 14C5.92331 14 6.29256 13.6342 6.29256 13.1836V11.2H7.70569V13.1836C7.70569 13.6342 8.07494 14 8.52994 14C8.98494 14 9.35419 13.6342 9.35419 13.1836V11.2H9.94306C10.4637 11.2 10.8854 10.7818 10.8854 10.2664V4.66638H3.11281Z" fill="black"/>
</g>
</g>
</g>
<defs>
<clipPath id="clip0_156_4476">
<rect width="14" height="14" fill="white"/>
</clipPath>
</defs>
</svg>

<svg xmlns="http://www.w3.org/2000/svg" fill="none" viewBox="0 0 14 14"><g fill="#000" clip-path="url(#a)"><path fill-rule="evenodd" d="M9.178 1.436c.778.48 1.355 1.21 1.597 2.064q.1.343.11.7h-7.77c.006-.237.042-.473.109-.7.241-.853.819-1.583 1.596-2.063a3 3 0 0 1 .268-.153l-.15-.266-.465-.834a.124.124 0 0 1 .217-.12l.623 1.113q.07-.03.143-.058.073-.03.147-.055a4.25 4.25 0 0 1 2.797 0q.075.026.146.054.074.027.144.059L9.314.063A.13.13 0 0 1 9.422 0q.03 0 .059.016c.06.033.081.107.048.167l-.468.836-.15.265.036.019.1.055q.066.037.131.078M4.88 2.684c0 .193.159.35.354.35a.35.35 0 0 0 .353-.35.35.35 0 0 0-.353-.35.35.35 0 0 0-.354.35m3.535 0c0 .193.158.35.353.35a.35.35 0 0 0 .354-.35.35.35 0 0 0-.354-.35.35.35 0 0 0-.353.35" clip-rule="evenodd"/><path d="M.875 5.483c0-.45.37-.817.825-.817a.82.82 0 0 1 .824.817v3.733a.82.82 0 0 1-.824.817.82.82 0 0 1-.825-.817zM11.476 5.483c0-.45.37-.817.824-.817a.82.82 0 0 1 .824.817v3.733a.82.82 0 0 1-.824.817.82.82 0 0 1-.824-.817zM3.113 4.666v5.6c0 .516.422.934.942.934h.59v1.984c0 .45.368.816.823.816a.82.82 0 0 0 .825-.816V11.2h1.413v1.984c0 .45.369.816.824.816a.82.82 0 0 0 .824-.816V11.2h.59c.52 0 .941-.418.941-.934v-5.6z"/></g><defs><clipPath id="a"><path fill="#fff" d="M0 0h14v14H0z"/></clipPath></defs></svg>
